usr/share/icons/biglinux-icons-material/scalable/apps/empathy.svg

<?xml version="1.0" encoding="UTF-8" standalone="no"?>
<svg
   width="24"
   height="24"
   viewBox="0 0 6.349875 6.349875"
   version="1.1"
   id="svg22316"
   sodipodi:docname="kde-im-log-viewer.svg"
   xml:space="preserve"
   inkscape:version="1.2.2 (b0a8486541, 2022-12-01)"
   xmlns:inkscape="http://www.inkscape.org/namespaces/inkscape"
   xmlns:sodipodi="http://sodipodi.sourceforge.net/DTD/sodipodi-0.dtd"
   xmlns:xlink="http://www.w3.org/1999/xlink"
   xmlns="http://www.w3.org/2000/svg"
   xmlns:svg="http://www.w3.org/2000/svg"><defs
     id="defs22320"><radialGradient
       id="radialGradient66380"
       cx="0"
       cy="0"
       r="1"
       gradientUnits="userSpaceOnUse"
       gradientTransform="matrix(0,22,-22,0,12,1)"><stop
         stop-color="#8FC8FF"
         id="stop66376"
         offset="0"
         style="stop-color:#ff5555;stop-opacity:1;" /><stop
         offset="1"
         stop-color="#0056A8"
         id="stop66378"
         style="stop-color:#ff5555;stop-opacity:1;" /></radialGradient><radialGradient
       id="paint0_radial_29_23"
       cx="0"
       cy="0"
       r="1"
       gradientUnits="userSpaceOnUse"
       gradientTransform="matrix(0,22,-22,0,12,1)"><stop
         stop-color="#8FC8FF"
         id="stop147"
         offset="0"
         style="stop-color:#f6f6f6;stop-opacity:1;" /><stop
         offset="1"
         stop-color="#0056A8"
         id="stop149"
         style="stop-color:#cfcfcf;stop-opacity:1;" /></radialGradient><radialGradient
       id="paint0_radial_10_2"
       cx="0"
       cy="0"
       r="1"
       gradientUnits="userSpaceOnUse"
       gradientTransform="matrix(-10.999959,21.999967,-21.999967,-10.999959,17.5,1)"
       xlink:href="#paint0_radial_29_23"><stop
         stop-color="#777777"
         id="stop2847" /><stop
         offset="1"
         stop-color="#222222"
         id="stop2849" /></radialGradient><radialGradient
       fx="0"
       fy="0"
       cx="0"
       cy="0"
       r="1"
       gradientUnits="userSpaceOnUse"
       gradientTransform="matrix(0,16.5,-16.5,0,8.999651,0.749985)"
       spreadMethod="pad"
       id="radialGradient868-3"><stop
         style="stop-opacity:1;stop-color:#fafafa"
         offset="0"
         id="stop864-6" /><stop
         style="stop-opacity:1;stop-color:#c0c0c0"
         offset="1"
         id="stop866-7" /></radialGradient></defs><sodipodi:namedview
     id="namedview22318"
     pagecolor="#ffffff"
     bordercolor="#000000"
     borderopacity="0.25"
     inkscape:showpageshadow="2"
     inkscape:pageopacity="0.0"
     inkscape:pagecheckerboard="0"
     inkscape:deskcolor="#d1d1d1"
     showgrid="false"
     inkscape:zoom="9.656427"
     inkscape:cx="-18.329761"
     inkscape:cy="6.5241523"
     inkscape:window-width="2560"
     inkscape:window-height="998"
     inkscape:window-x="1680"
     inkscape:window-y="0"
     inkscape:window-maximized="1"
     inkscape:current-layer="svg22316" /><g
     id="g854"
     transform="matrix(0.35277083,0,0,0.35277083,-1.1970624e-4,-9.3206515e-6)"><g
       id="g856"><g
         id="g862"><path
           d="m 7.195,0.836 c 0.09,0 0.176,-0.012 0.258,-0.035 1.078,-0.071 2.156,-0.067 3.231,0.008 0.976,0.078 1.921,0.289 2.836,0.636 1.519,0.625 2.558,1.711 3.121,3.254 0.316,0.93 0.507,1.887 0.566,2.867 0.078,1.235 0.051,2.465 -0.086,3.696 -0.105,0.863 -0.328,1.691 -0.672,2.488 -0.637,1.383 -1.672,2.336 -3.101,2.859 C 12.191,17 11,17.207 9.773,17.227 8.398,17.301 7.035,17.195 5.684,16.918 3.203,16.367 1.668,14.852 1.09,12.375 0.844,11.262 0.73,10.133 0.754,8.992 0.727,7.781 0.855,6.582 1.141,5.402 1.75,3.09 3.219,1.656 5.547,1.102 6.09,0.969 6.641,0.879 7.195,0.836 Z"
           style="fill:url(#radialGradient868-3);fill-rule:evenodd;stroke:none"
           id="path870" /></g></g></g><path
     d="m 3.1064887,1.3953439 c -0.2274487,0 -0.4105572,0.1831085 -0.4105572,0.4105572 v 0.9579666 c 0,0.2274487 0.1831085,0.4105572 0.4105572,0.4105572 h 0.8211142 v 0.2874584 c 0,0.039482 0.015054,0.06172 0.053441,0.053578 L 4.3650513,3.1744249 H 4.748717 c 0.2274484,0 0.4105568,-0.1831085 0.4105568,-0.4105572 V 1.8059011 c 0,-0.2274487 -0.1831084,-0.4105572 -0.4105568,-0.4105572 z"
     fill="#a0ecff"
     opacity="0.9"
     style="stroke-width:0.0684262;paint-order:stroke markers fill"
     id="path12793" /><path
     d="m 2.2864179,2.2164524 c -0.2274487,0 -0.4105571,0.1831085 -0.4105571,0.4105571 v 0.9579667 c 0,0.2274487 0.1831084,0.4105572 0.4105571,0.4105572 h 0.8211143 v 0.2874582 c 0,0.039482 0.015054,0.061721 0.053441,0.053578 L 3.5449806,3.9955334 h 0.3836656 c 0.2274484,0 0.4105569,-0.1831085 0.4105569,-0.4105572 V 2.6270095 c 0,-0.2274486 -0.1831085,-0.4105571 -0.4105569,-0.4105571 z"
     fill="#a0ecff"
     opacity="0.9"
     style="opacity:0.25734;fill:#5ca4ed;fill-opacity:1;stroke-width:0.0684262;paint-order:stroke markers fill"
     id="path13016" /><path
     id="path12791"
     style="fill:#5ca4ed;fill-opacity:1;stroke-width:0.0684262;paint-order:stroke markers fill"
     d="M 1.6010235,2.2164452 A 0.40953075,0.40953075 0 0 0 1.1906029,2.6268658 v 1.3687814 a 0.40953075,0.40953075 0 0 0 0.4104206,0.4104205 h 0.4132272 l 0.6150295,0.5463365 c 0.049198,0.010402 0.068158,-0.018129 0.068158,-0.068559 V 4.4060677 H 3.9277648 A 0.40953075,0.40953075 0 0 0 4.3381854,3.9956472 V 3.1983274 L 3.9810888,3.5154645 c -0.00241,5.094e-4 -0.00473,9.284e-4 -0.00695,0.0012 -0.00445,5.431e-4 -0.00855,6.206e-4 -0.012295,2.663e-4 -0.00186,-1.743e-4 -0.00364,-4.138e-4 -0.00535,-8.017e-4 -0.00341,-7.836e-4 -0.00646,-0.00201 -0.00922,-0.00361 -0.00827,-0.0048 -0.013689,-0.013192 -0.016704,-0.024457 -0.00101,-0.00375 -0.00178,-0.00779 -0.00228,-0.012162 -4.914e-4,-0.00433 -6.724e-4,-0.00902 -6.724e-4,-0.013899 V 3.4618732 3.1744051 H 3.1065155 c -0.2274486,0 -0.4105542,-0.1831058 -0.4105542,-0.4105543 V 2.2164452 Z" /><circle
     cx="2.0574074"
     cy="3.407393"
     r="0.17664647"
     fill="#ffffff"
     opacity="0.35"
     paint-order="markers stroke fill"
     id="circle23210"
     style="stroke-width:0.267241" /><circle
     cx="2.7642608"
     cy="3.407393"
     r="0.17664647"
     fill="#ffffff"
     opacity="0.35"
     paint-order="markers stroke fill"
     id="circle23212"
     style="stroke-width:0.267241" /><circle
     cx="3.4713809"
     cy="3.407393"
     r="0.17664647"
     fill="#ffffff"
     opacity="0.35"
     paint-order="markers stroke fill"
     id="circle23214"
     style="stroke-width:0.267241" /></svg>

<svg xmlns="http://www.w3.org/2000/svg" xml:space="preserve" width="24" height="24" viewBox="0 0 6.35 6.35"><defs><radialGradient id="a" cx="0" cy="0" r="1" gradientTransform="matrix(0 22 -22 0 12 1)" gradientUnits="userSpaceOnUse"><stop offset="0" stop-color="#8FC8FF" style="stop-color:#f6f6f6;stop-opacity:1"/><stop offset="1" stop-color="#0056A8" style="stop-color:#cfcfcf;stop-opacity:1"/></radialGradient><radialGradient id="b" cx="0" cy="0" r="1" fx="0" fy="0" gradientTransform="matrix(0 16.5 -16.5 0 9 .75)" gradientUnits="userSpaceOnUse" spreadMethod="pad"><stop offset="0" style="stop-opacity:1;stop-color:#fafafa"/><stop offset="1" style="stop-opacity:1;stop-color:silver"/></radialGradient></defs><path d="M7.195.836c.09 0 .176-.012.258-.035a23.86 23.86 0 0 1 3.231.008 10.26 10.26 0 0 1 2.836.636c1.519.625 2.558 1.711 3.121 3.254.316.93.507 1.887.566 2.867a21.227 21.227 0 0 1-.086 3.696 8.976 8.976 0 0 1-.672 2.488c-.637 1.383-1.672 2.336-3.101 2.859a11.693 11.693 0 0 1-3.575.618 15.998 15.998 0 0 1-4.089-.309c-2.481-.551-4.016-2.066-4.594-4.543a14.244 14.244 0 0 1-.336-3.383c-.027-1.211.101-2.41.387-3.59.609-2.312 2.078-3.746 4.406-4.3A10.27 10.27 0 0 1 7.195.836Z" style="fill:url(#b);fill-rule:evenodd;stroke:none" transform="scale(.35277)"/><path fill="#a0ecff" d="M3.106 1.395a.41.41 0 0 0-.41.41v.959c0 .227.183.41.41.41h.822v.288c0 .04.015.062.053.053l.384-.34h.384a.41.41 0 0 0 .41-.411v-.958a.41.41 0 0 0-.41-.41z" opacity=".9" style="stroke-width:.0684262;paint-order:stroke markers fill"/><path fill="#a0ecff" d="M2.286 2.216a.41.41 0 0 0-.41.411v.958c0 .227.183.41.41.41h.822v.288c0 .04.015.062.053.054l.384-.341h.384a.41.41 0 0 0 .41-.411v-.958a.41.41 0 0 0-.41-.41z" opacity=".9" style="opacity:.25734;fill:#5ca4ed;fill-opacity:1;stroke-width:.0684262;paint-order:stroke markers fill"/><path d="M1.601 2.216a.41.41 0 0 0-.41.41v1.37a.41.41 0 0 0 .41.41h.413l.615.546c.05.01.068-.018.068-.068v-.478h1.23a.41.41 0 0 0 .411-.41v-.798l-.357.317a.082.082 0 0 1-.02.002h-.005a.033.033 0 0 1-.009-.004.038.038 0 0 1-.016-.025.083.083 0 0 1-.003-.026v-.288h-.821a.41.41 0 0 1-.411-.41v-.548Z" style="fill:#5ca4ed;fill-opacity:1;stroke-width:.0684262;paint-order:stroke markers fill"/><circle cx="2.057" cy="3.407" r=".177" fill="#fff" opacity=".35" paint-order="markers stroke fill" style="stroke-width:.267241"/><circle cx="2.764" cy="3.407" r=".177" fill="#fff" opacity=".35" paint-order="markers stroke fill" style="stroke-width:.267241"/><circle cx="3.471" cy="3.407" r=".177" fill="#fff" opacity=".35" paint-order="markers stroke fill" style="stroke-width:.267241"/></svg>
